X:645
T:Reel 645
M:4/4
K:Gmaj
L:1/8
dc|Bdgd Bdgd|Bdgd BAAd|Bdgd gded|Bdgd BAAd|Bdgd gdgd|Bdgd BAAd|Bdef gabc'|d'bc'a bgg2|b3b a2ag| (3efg dB BAAd| (3bc'd' ba  (3bc'd' ba|gedB BAA2|bc'bg e3g| (3efg dg egdg| (3ege de egd| (3efg dg egg2|
